!!!COA:	Josquin des Prez
!!!CDT:	~1450-1521/08/27
!!!OTL@@LAT:	In domino confido
!!!OTL@ENG:	I trust in the Lord
!!!OTL2@@LAT:	Oculi ejus
!!!OTL2@ENG:	His eyes
!!!AGN:	Motet
!!!SCT:	NJE 17.3
!!!SCA:	New Josquin Edition 17.3
!!!voices:	4
**kern	**kern	**kern	**kern
*staff4	*staff3	*staff2	*staff1
*Ivox	*Ivox	*Ivox	*Ivox
*I"Bassus	*I"Tenor	*I"Altus	*I"Superius
*I'B	*I'T	*I'A	*I'S
*>[A,B]	*>[A,B]	*>[A,B]	*>[A,B]
*>Part1[A]	*>Part1[A]	*>Part1[A]	*>Part1[A]
*>Part2[B]	*>Part2[B]	*>Part2[B]	*>Part2[B]
*clefF4	*clefGv2	*clefGv2	*clefG2
*k[]	*k[]	*k[]	*k[]
*M2/1	*M2/1	*M2/1	*M2/1
*met(C|)	*met(C|)	*met(C|)	*met(C|)
*>A	*>A	*>A	*>A
!!section:Part 1
=1-	=1-	=1-	=1-
0r	0r	1r	0g
.	.	[1c	.
=2	=2	=2	=2
0r	0r	1c]	1.cc
.	.	[1f	.
.	.	.	2b\
=3	=3	=3	=3
0r	0r	2f\]	2a/
.	.	2e\	2g/
.	.	2d\	1a
.	.	2c\	.
=4	=4	=4	=4
1r	0G	1d	[0g
[1C	.	[1c	.
=5	=5	=5	=5
1C]	1.c	1c]	1g]
[1F	.	1r	1r
.	2B\	.	.
=6	=6	=6	=6
2F\]	2A/	2r	0r
2E\	2G/	2c\	.
2D\	[1A	2d\	.
[2C/	.	[2e\	.
=7	=7	=7	=7
4C/]	2A/]	4e\]	1r
4D\	.	4d\	.
4E\	1G	1c	.
4F\	.	.	.
2D\	.	.	1dd
2D\	2F/	2B\	.
=8	=8	=8	=8
[0C	0G	1.c	1.ee
.	.	2c\	2ee\
=9	=9	=9	=9
0C]	0r	1c	0ee
.	.	2r	.
.	.	2G/	.
=10	=10	=10	=10
0r	0r	2A/	2cc\
.	.	2B\	2dd\
.	.	2c\	2ee\
.	.	2d\	2ff\
=11	=11	=11	=11
0r	0r	2e\	2ee\
.	.	2f\	2cc\
.	.	2d\	2dd\
.	.	[2g\	2b\
=12	=12	=12	=12
0r	0r	2g\]	1a
.	.	2f#i\	.
.	.	1g	[1g
=13	=13	=13	=13
0r	0r	2r	1g]
.	.	2G/	.
.	.	2.c\	2r
.	.	.	2c/
.	.	4d\	.
=14	=14	=14	=14
0r	0r	2e\	2.g/
.	.	2f\	.
.	.	.	4a/
.	.	2g\	2b\
.	.	2a\	2cc\
=15	=15	=15	=15
0r	0r	2g\	2dd\
.	.	2e\	2ee\
.	.	2f\	2dd\
.	.	[2g\	[2ee\
=16	=16	=16	=16
1r	0r	4g\]	4ee\]
.	.	4f\	4dd\
.	.	2e\	1cc
2r	.	1d	.
2GG/	.	.	2b\
=17	=17	=17	=17
2.C/	2r	0c	1cc
.	2C/	.	.
4D\	.	.	.
2E\	2.G/	.	1r
2F\	.	.	.
.	4A/	.	.
=18	=18	=18	=18
2G\	2B\	0r	1r
2A\	2c\	.	.
2G\	2d\	.	2r
2E\	2e\	.	2g/
=19	=19	=19	=19
2F\	2d\	0r	2a/
2.G\	2.e\	.	2g/
.	.	.	2b\
4F\	4d\	.	.
2E\	[2c\	.	2cc\
=20	=20	=20	=20
1D	2c\]	1f	1dd
.	2B\	.	.
[1C	[1c	2e\	[1ee
.	.	[2g\	.
=21	=21	=21	=21
1C]	1c]	4g\]	2ee\]
.	.	4f\	.
.	.	2e\	2cc\
1r	2B\	2d\	2dd\
.	2A/	2c\	[2ee\
=22	=22	=22	=22
0r	1c	1e	4ee\]
.	.	.	4dd\
.	.	.	1cc
.	1G	1d	.
.	.	.	2b\
=23	=23	=23	=23
1r	2r	1c	0cc
.	1c	.	.
[1F	.	1r	.
.	[2c\	.	.
=24	=24	=24	=24
2F\]	1c]	0r	0r
2F\	.	.	.
2F\	2A/	.	.
2D\	[2B\	.	.
=25	=25	=25	=25
1E	2B\]	0r	0r
.	1c	.	.
1F	.	.	.
.	[2d\	.	.
=26	=26	=26	=26
1G	2d\]	0r	1r
.	1B	.	.
1E	.	.	[1g
.	2G/	.	.
=27	=27	=27	=27
[0C	1G	1.c	2g/]
.	.	.	2g/
.	1r	.	1g
.	.	2c\	.
=28	=28	=28	=28
1C]	0r	1c	1e
1r	.	1A	1f
=29	=29	=29	=29
0r	1r	1B	1g
.	2r	1c	1a
.	[2A/	.	.
=30	=30	=30	=30
1D	2A/]	1d	1f
.	1d	.	.
1G	.	1B	1d
.	[2B\	.	.
=31	=31	=31	=31
1E	2B\]	1G	1r
.	1c	.	.
1F	.	1r	1a
.	[2d\	.	.
=32	=32	=32	=32
0G	4d\]	1d	1dd
.	4c\	.	.
.	1B	.	.
.	.	1g	1b
.	4A/	.	.
.	4G/	.	.
=33	=33	=33	=33
1C	1G	1e	1cc
1r	1r	2f\	[1dd
.	.	[2g\	.
=34	=34	=34	=34
1r	1G	4g\]	1dd]
.	.	4f\	.
.	.	4e\	.
.	.	4d\	.
1C	1c	1e	[1g
=35	=35	=35	=35
1G	1B	1d	1g]
[1G	[1B	2r	2r
.	.	[2d\	[2b\
=36	=36	=36	=36
1G]	1B]	1d]	2b\]
.	.	.	2b\
[1G	[1d	2B\	1b
.	.	4G/	.
.	.	4A/	.
=37	=37	=37	=37
1G]	2d\]	4B\	1b
.	.	4c\	.
.	2B\	2d\	.
2r	2c\	2.e\	1r
2c\	2A/	.	.
.	.	4c\	.
=38	=38	=38	=38
2B\	1G	2d\	1r
2G\	.	1e	.
1A	2r	.	1cc
.	2c\	2f\	.
=39	=39	=39	=39
2G\	2d\	1g	2b\
2E\	2e\	.	2g/
2F\	1d	2f\	2a/
2G\	.	2d\	2b\
=40	=40	=40	=40
2C/	2c\	2e\	2g/
2E\	2g\	2c\	1cc
2F\	2f\	1d	.
2G\	2d\	.	2b\
=41	=41	=41	=41
2C/	2e\	2c\	1cc
2E\	1c	2g\	.
2F\	.	2f\	1dd
2G\	2B\	2d\	.
=42	=42	=42	=42
1C	0c	2e\	1cc
.	.	2c\	.
2r	.	[1g	1r
2C/	.	.	.
=43	=43	=43	=43
1G	1r	1g]	0dd
1G	1B	1g	.
=44	=44	=44	=44
0G	2B\	2g\	2dd\
.	2B\	2g\	2dd\
.	1B	1g	1dd
=45	=45	=45	=45
*M3/1	*M3/1	*M3/1	*M3/1
*met(3)	*met(3)	*met(3)	*met(3)
1G	1B	1g	1dd
1G	1B	1g	1dd
1G	1B	1g	1dd
=46	=46	=46	=46
0C	0c	0g	0ee
1BB-	1d	1r	1ff
=47	=47	=47	=47
1C	1e	1g	1ee
0D	0f	1f	0dd
.	.	1a	.
=48	=48	=48	=48
1E	1e	1g	0cc
1F	0d	1f	.
1G	.	1d	1b
=49	=49	=49	=49
*M2/1	*M2/1	*M2/1	*M2/1
*met(C|)	*met(C|)	*met(C|)	*met(C|)
0C	0c	[0e	[0cc
=50	=50	=50	=50
2r	1r	0e]	1cc]
1c	.	.	.
.	2r	.	1r
2c\	[2g\	.	.
=51	=51	=51	=51
1B	2g\]	0r	0r
.	2g\	.	.
2A\	2f\	.	.
[2c\	2e\	.	.
=52	=52	=52	=52
2c\]	1g	0r	0r
2B\	.	.	.
2A\	2f\	.	.
2G\	2e\	.	.
=53	=53	=53	=53
2F\	2d\	0r	0r
2E\	2c\	.	.
1D	2f\	.	.
.	2f\	.	.
=54	=54	=54	=54
1C	1e	2r	1r
.	.	1g	.
1r	1r	.	2r
.	.	2g\	[2dd\
=55	=55	=55	=55
0r	0r	1f	2dd\]
.	.	.	2dd\
.	.	2e\	2cc\
.	.	[2g\	2b\
=56	=56	=56	=56
0r	0r	2g\]	1dd
.	.	2f\	.
.	.	2e\	2cc\
.	.	2d\	2b\
=57	=57	=57	=57
0r	0r	2c\	2a/
.	.	2B\	2g/
.	.	1A	2cc\
.	.	.	2cc\
=58	=58	=58	=58
1r	0d	0G	0b
1G	.	.	.
=59	=59	=59	=59
0G	2.B\	0r	1r
.	4c\	.	.
.	2d\	.	[1g
.	2e\	.	.
=60	=60	=60	=60
0G	2d\	1B	1g]
.	1e	.	.
.	.	2.B\	1g
.	4d\	.	.
.	4c\	4c\	.
=61	=61	=61	=61
2.G\	2.B\	2d\	1g
.	.	2e\	.
4A\	4c\	.	.
2B\	2d\	2d\	1g
2c\	[2e\	[2g\	.
=62	=62	=62	=62
0A	4e\]	2g\]	2a/
.	4d\	.	.
.	4c\	4f\	1cc
.	4B\	4e\	.
.	1c	2f\	.
.	.	4g\	4b\
.	.	4f#i\	4a/
=63	=63	=63	=63
[0G	[0d	0g	0b
=64	=64	=64	=64
0G_	0d]	1r	2r
.	.	.	1dd
.	.	1g	.
.	.	.	2dd\
=65	=65	=65	=65
0G]	0r	2g\	2dd\
.	.	2g\	2dd\
.	.	2g\	1dd
.	.	[2g\	.
=66	=66	=66	=66
0r	0r	2g\]	1b
.	.	1e	.
.	.	.	1cc
.	.	[2f\	.
=67	=67	=67	=67
0r	0r	2f\]	2a/
.	.	4d\	1dd
.	.	4e\	.
.	.	4f\	.
.	.	4g\	.
.	.	[2a\	[2cc\
=68	=68	=68	=68
0r	1r	2a\]	2cc\]
.	.	1g	2b\
.	2r	.	1a
.	[2d\	2f#i\	.
=69	=69	=69	=69
2.G\	4d\]	0g	0g
.	4d\	.	.
.	2d\	.	.
4G\	.	.	.
2G\	2d\	.	.
2G\	2d\	.	.
=70	=70	=70	=70
2G\	1B	0r	0r
1E	.	.	.
.	1c	.	.
[2F\	.	.	.
=71	=71	=71	=71
2F\]	2A/	0r	0r
4D\	1d	.	.
4E\	.	.	.
4F\	.	.	.
4G\	.	.	.
[2A\	[2c\	.	.
=72	=72	=72	=72
2A\]	2c\]	0r	1g
1G	2B\	.	.
.	1A	.	1a
2F#i\	.	.	.
=73	=73	=73	=73
1G	[0G	0r	1.b
1r	.	.	.
.	.	.	2b\
=74	=74	=74	=74
1C	0G]	1c	0cc
2C/	.	2c\	.
2C/	.	2c\	.
=75	=75	=75	=75
0G	0r	2d\	0b
.	.	2.e\	.
.	.	4d\	.
.	.	[2g\	.
=76	=76	=76	=76
0A	1c	2g\]	1r
.	.	4f#i\	.
.	.	4e\	.
.	2c\	1f#i	1a
.	2c\	.	.
=77	=77	=77	=77
0G	1d	0g	2b\
.	.	.	1dd
.	1B	.	.
.	.	.	4cc\
.	.	.	4b\
=78	=78	=78	=78
1F	2c\	1r	1a
.	2d\	.	.
1E	1e	1G	1g
=79	=79	=79	=79
0D	1.f	1A	0r
.	.	1B	.
.	4e\	.	.
.	4d\	.	.
=80	=80	=80	=80
1C	1e	1.c	1cc
2r	1e	.	2cc\
2C/	.	4B\	2cc\
.	.	4A/	.
=81	=81	=81	=81
2G\	2d\	2B\	2dd\
2E\	1c	2c\	2ee\
1D	.	1d	1ff
.	2B\	.	.
=82	=82	=82	=82
1C	[0cl	2e\	1ee
.	.	2.g\	.
2r	.	.	1ee
.	.	4f\	.
[2C/	.	4e\	.
.	.	4d\	.
=83	=83	=83	=83
2C/]	0c_	4e\	1gg
.	.	4d\	.
2C/	.	4c\	.
.	.	4B\	.
1F	.	[1A	1ff
=84	=84	=84	=84
[0Cl	0c_	2A/]	2.ee\
.	.	2G/	.
.	.	.	4dd\
.	.	[1Gl	4cc\
.	.	.	4b\
.	.	.	[2cc\
=85	=85	=85	=85
0C_	0c_	0G_	2cc\]
.	.	.	4b\
.	.	.	4a/
.	.	.	2g/
.	.	.	2a/
=86	=86	=86	=86
0C]	0c]	0G]	0el
*>B	*>B	*>B	*>B
!!LO:LB:i:g=z
=87||	=87||	=87||	=87||
!!section:Part 2
!!!OMD: Secunda pars: Oculi ejus
*M2/1	*M2/1	*M2/1	*M2/1
*met(C|)	*met(C|)	*met(C|)	*met(C|)
0r	1c	0r	1cc
.	2f\	.	2cc\
.	2e\	.	2cc\
=88	=88	=88	=88
1r	1d	1r	1ff
1C	[1c	1c	1ee
=89	=89	=89	=89
2F\	1c]	2c\	2r
2E\	.	2c\	2gg\
1D	1r	1f	2ff\
.	.	.	2dd\
=90	=90	=90	=90
1C	2r	1e	2ee\
.	2g\	.	2ee\
1r	2f\	1r	4dd\
.	.	.	4cc\
.	2d\	.	4b\
.	.	.	4a/
=91	=91	=91	=91
0r	2e\	0r	2g/
.	1f	.	1a
.	2e\	.	2g/
=92	=92	=92	=92
1r	1d	0r	1f
2r	2c\	.	1e
2c\	2A/	.	.
=93	=93	=93	=93
2B\	1G	2r	0r
2G\	.	2g\	.
2A\	1r	2f\	.
4B\	.	2d\	.
4A\	.	.	.
=94	=94	=94	=94
4G\	0r	4e\	0r
4F\	.	4d\	.
2E\	.	4c\	.
.	.	4B\	.
2F\	.	4A/	.
.	.	4G/	.
2E\	.	[2c\	.
=95	=95	=95	=95
1D	1r	2c\]	1r
.	.	2B\	.
[1C	1c	1A	1cc
=96	=96	=96	=96
1C]	2c\	1G	2cc\
.	2c\	.	2cc\
1r	1d	1r	1ff
=97	=97	=97	=97
1C	2.c\	1c	0ee
.	4B\	.	.
2C/	4A/	2c\	.
.	4G/	.	.
2C/	[2c\	2c\	.
=98	=98	=98	=98
1D	2c\]	1f	0r
.	2B\	.	.
1C	[1c	[1e	.
=99	=99	=99	=99
2r	1c]	1e]	0r
2c\	.	.	.
2B\	2r	1r	.
2G\	2g\	.	.
=100	=100	=100	=100
1A	2e\	1r	2r
.	2c\	.	2cc\
2G\	2d\	2r	2b\
2E\	4e\	2g\	2g/
.	4d\	.	.
=101	=101	=101	=101
1F	4c\	2f\	1a
.	4B\	.	.
.	2A/	2d\	.
2E\	2B\	1e	2g/
2C/	4c\	.	2e/
.	4B\	.	.
=102	=102	=102	=102
1D	4A/	2d\	1f
.	4G/	.	.
.	2F/	2B\	.
[1C	2G/	[1c	2e/
.	[2A/	.	4c/
.	.	.	4d/
=103	=103	=103	=103
1C]	2A/]	1c]	4e/
.	.	.	4f/
.	2G/	.	4g/
.	.	.	4a/
1r	[1g	2.G/	4b\
.	.	.	4cc\
.	.	.	[2dd\
.	.	4A/	.
=104	=104	=104	=104
0r	2g\]	2B\	2dd\]
.	2e\	2c\	1cc
.	1d	1G	.
.	.	.	2b\
=105	=105	=105	=105
1r	0c	1c	0cc
2.F\	.	2r	.
.	.	[2c\	.
4F\	.	.	.
=106	=106	=106	=106
2F\	0r	4c\]	0r
.	.	4c\	.
2F\	.	2c\	.
2A\	.	2c\	.
2G\	.	2e\	.
=107	=107	=107	=107
0F	0r	2d\	0r
.	.	1c	.
.	.	[2f\	.
=108	=108	=108	=108
1B-i	0r	2f\]	0r
.	.	1d	.
1G	.	.	.
.	.	[2e\	.
=109	=109	=109	=109
2.A\	0r	4e\]	0r
.	.	4d\	.
.	.	4c\	.
4G\	.	4B\	.
4F\	.	4A/	.
4E\	.	4G/	.
[2D\	.	[2f\	.
=110	=110	=110	=110
2D\]	2r	2f\]	0r
2E\	2G/	1e	.
2F\	2A/	.	.
2G\	2B\	2d\	.
=111	=111	=111	=111
0C	[0c	1e	1r
.	.	1r	[1g
=112	=112	=112	=112
1r	0c]	0e	1g]
[1C	.	.	[1g
=113	=113	=113	=113
1C]	0c	1e	1g]
1C	.	[1e	1g
=114	=114	=114	=114
1C	1.c	1e]	1.g
[1C	.	[1e	.
.	2c\	.	2g/
=115	=115	=115	=115
2C/]	1c	2e\]	2g/
2C/	.	2e\	2g/
1C	1c	1e	[1cc
=116	=116	=116	=116
1F	2.c\	2.f\	1cc]
.	4B\	4e\	.
2F\	2A/	2d\	2dd\
2E\	2G/	[2c\	2ee\
=117	=117	=117	=117
1D	1d	2c\]	1ff
.	.	2B\	.
2C/	2G/	2c\	1ee
[2c\	[2e\	2A/	.
=118	=118	=118	=118
2c\]	2e\]	1G	0r
2B\	2d\	.	.
2A\	2c\	1r	.
2G\	2B\	.	.
=119	=119	=119	=119
2F\	4A/	0r	0r
.	4G/	.	.
2E\	1c	.	.
1D	.	.	.
.	2B\	.	.
=120	=120	=120	=120
1C	0c	2r	2r
.	.	1g	1ee
1r	.	.	.
.	.	2f\	2dd\
=121	=121	=121	=121
0r	1r	2e\	2cc\
.	.	2d\	2b\
.	2r	2c\	2a/
.	2C/	2B\	2g/
=122	=122	=122	=122
0r	2D/	4A/	2f/
.	.	4G/	.
.	2E/	1c	2e/
.	2F/	.	1d
.	2G/	2B\	.
=123	=123	=123	=123
2r	2C/	2.c\	1c
1c	2.C/	.	.
.	.	4d\	.
.	.	4e\	[1cc
.	4D/	4f\	.
2B\	2E/	2g\	.
=124	=124	=124	=124
2A\	2F/	2f\	2cc\]
2G\	2G/	1d	2b\
2F\	2D/	.	2a/
2E\	2G/	2e\	2g/
=125	=125	=125	=125
2D\	2A/	2f\	2f/
2C/	1c	2.g\	2e/
1G	.	.	1d
.	.	4f\	.
.	2B\	2d\	.
=126	=126	=126	=126
*M3/1	*M3/1	*M3/1	*M3/1
*met(3)	*met(3)	*met(3)	*met(3)
[0.C	0.c	0e	0.c
.	.	1r	.
=127	=127	=127	=127
0C]	1r	1.g	0.r
.	1.c	.	.
.	.	2f\	.
1r	.	1e	.
.	2B\	.	.
=128	=128	=128	=128
1.c	1A	0e	1r
.	0A	.	1r
2B\	.	.	.
1A	.	1r	[1cc
=129	=129	=129	=129
0A	1r	1.c	2cc\]
.	.	.	2b\
.	1.F	.	1a
.	.	2B\	.
1r	.	1A	[1a
.	2E/	.	.
=130	=130	=130	=130
1.F	1D	0A	1a]
.	0D	.	1r
2E\	.	.	.
1D	.	1r	[1f
=131	=131	=131	=131
1D	1A	0d	2f/]
.	.	.	2e/
0G	0B	.	0d
.	.	1B	.
=132	=132	=132	=132
1E	1G	1c	1g
1F	1A	1d	1f
1G	1G	1B	1d
=133	=133	=133	=133
1E	1.c	1G	0e
2C/	.	0c	.
2D\	2B\	.	.
2E\	1G	.	1e
2F\	.	.	.
=134	=134	=134	=134
2G\	1.G	0B	1.d
2A\	.	.	.
2B\	.	.	.
2c\	2F/	.	2e/
1d	1D	[1A	[1f
=135	=135	=135	=135
0c	1F	1A]	1f]
.	1C	0G	1e
1B	1G	.	1d
=136	=136	=136	=136
1c	1A	[0.g	2c/
.	.	.	2d/
2C/	1c	.	2e/
2D\	.	.	2f/
2E\	1c	.	2g/
2F\	.	.	2a/
=137	=137	=137	=137
1.G	1.B	0.g]	2b\
.	.	.	2cc\
.	.	.	0dd
2A\	2c\	.	.
1B	1d	.	.
=138	=138	=138	=138
1c	1e	1.g	0cc
0A	0c	.	.
.	.	2e\	.
.	.	1f#i	2b\
.	.	.	2a/
=139	=139	=139	=139
*M2/1	*M2/1	*M2/1	*M2/1
*met(C|)	*met(C|)	*met(C|)	*met(C|)
0G	0d	1g	1b
.	.	1r	1r
=140	=140	=140	=140
1r	1r	1f	1a
1C	1c	1e	1g
=141	=141	=141	=141
1G	1B	1r	1r
1r	1r	1f	1a
=142	=142	=142	=142
1C	1c	1e	1g
1G	1B	2r	2r
.	.	2e\	2g/
=143	=143	=143	=143
0r	1c	2e\	2g/
.	.	2e\	2g/
.	1r	2f\	2a/
.	.	2e\	2g/
=144	=144	=144	=144
0r	0r	1c	1a
.	.	1d	1f
=145	=145	=145	=145
2r	1c	0e	0g
2C/	.	.	.
2C/	2c\	.	.
2C/	2c\	.	.
=146	=146	=146	=146
2F\	2c\	0r	2r
2E\	2G/	.	2g/
2F\	2A/	.	1cc
2F\	[2c\	.	.
=147	=147	=147	=147
1D	2c\]	0r	1dd
.	2B\	.	.
1C	1c	.	2.ee\
.	.	.	8dd\L
.	.	.	8cc\J
=148	=148	=148	=148
*M3/1	*M3/1	*M3/1	*M3/1
*met(3)	*met(3)	*met(3)	*met(3)
0G	0d	0.r	0b
1A	1c	.	1cc
=149	=149	=149	=149
1B	1B	1d	1dd
1c	1A	1c	1.ee
[1A	[1c	1e	.
.	.	.	2dd\
=150	=150	=150	=150
1A]	1c]	1f	0cc
0G	0d	0g	.
.	.	.	1b
=151	=151	=151	=151
1C	0c	1e	0cc
0F	.	2f\	.
.	.	2e\	.
.	1r	2d\	1r
.	.	2c\	.
=152	=152	=152	=152
1E	0.r	0c	0.r
0D	.	.	.
.	.	1B	.
=153	=153	=153	=153
*M2/1	*M2/1	*M2/1	*M2/1
*met(C|)	*met(C|)	*met(C|)	*met(C|)
1C	2r	0c	2r
.	2e\	.	2g/
1r	2e\	.	2g/
.	2e\	.	2g/
=154	=154	=154	=154
0r	2f\	1r	2a/
.	2e\	.	2g/
.	2f\	2r	2a/
.	2d\	[2G/	2b\
=155	=155	=155	=155
1C	0c	2G/]	1cc
.	.	2G/	.
2C/	.	1G	1r
2C/	.	.	.
=156	=156	=156	=156
2F\	0r	2A/	0r
2E\	.	2G/	.
2F\	.	2A/	.
2D\	.	2B\	.
=157	=157	=157	=157
1C	2r	0c	1g
.	2e\	.	.
1r	2e\	.	2g/
.	2e\	.	2g/
=158	=158	=158	=158
0r	2f\	1r	2a/
.	2e\	.	2g/
.	2f\	2r	2a/
.	2d\	[2G/	2b\
=159	=159	=159	=159
1C	0c	2G/]	1cc
.	.	2G/	.
2C/	.	1G	1r
2C/	.	.	.
=160	=160	=160	=160
2F\	0r	2A/	0r
2E\	.	2G/	.
2F\	.	2A/	.
2D\	.	2B\	.
=161	=161	=161	=161
1C	2r	1c	0r
.	1g	.	.
2r	.	1G	.
[2G\	2g\	.	.
=162	=162	=162	=162
2G\]	1g	2r	1dd
2G\	.	1d	.
1G	1d	.	2dd\
.	.	2d\	[2dd\
=163	=163	=163	=163
1D	1f	1d	2dd\]
.	.	.	1a
1F	2.c\	1A	.
.	.	.	[2cc\
.	4d\	.	.
=164	=164	=164	=164
2.C/	4e\	1c	2cc\]
.	4f\	.	.
.	1g	.	2.g/
4D\	.	.	.
4E\	.	2.G/	.
4F\	.	.	4a/
[2G\	[2d\	.	4b\
.	.	4A/	4cc\
=165	=165	=165	=165
2G\]	2d\]	4B\	1dd
.	.	4c\	.
1D	2.f\	1d	.
.	.	.	2.a/
.	4e\	.	.
[2F\	[2c\	[2A/	.
.	.	.	4b\
=166	=166	=166	=166
2F\]	1c]	4A/]	4cc\
.	.	4B\	4dd\
2E\	.	2c\	2ee\
2D\	2d\	2F/	2ff\
2C/	2e\	2G/	2ee\
=167	=167	=167	=167
2BB/	2f\	2D/	2dd\
2C/	1e	2E/	1cc
1G	.	2C/	.
.	2d\	[2G/	2b\
=168	=168	=168	=168
1C	1g	4G/]	1ee
.	.	4A/	.
.	.	2c\	.
2r	2.g\	2B\	2dd\
2G\	.	2d\	2b\
.	4f\	.	.
=169	=169	=169	=169
2A\	2e\	2c\	1cc
2c\	2c\	2e\	.
2G\	2d\	2d\	2b\
2B\	2B\	[2g\	2g/
=170	=170	=170	=170
1A	1c	2g\]	1a
.	.	2f#i\	.
[1G	2d\	[1g	1b
.	[2e\	.	.
=171	=171	=171	=171
2G\]	4e\]	1g]	1g
.	4f\	.	.
2E\	2g\	.	.
2F\	2c\	1r	1a
2D\	2f\	.	.
=172	=172	=172	=172
2E\	1e	1r	2g/
2C/	.	.	1cc
1G	1d	2r	.
.	.	2d\	2b\
=173	=173	=173	=173
0C	1c	2e\	[0ccl
.	.	2c\	.
.	2r	1g	.
.	2G/	.	.
=174	=174	=174	=174
0r	2A/	1f	0cc_
.	2F/	.	.
.	2.c\	2.e\	.
.	4B\	4d\	.
=175	=175	=175	=175
2r	2A/	2c\	0cc_
2G\	2E/	2B\	.
2A\	1F	1A	.
2F\	.	.	.
=176	=176	=176	=176
2.c\	1C	2G/	0cc_
.	.	2.c\	.
4B\	.	.	.
2A\	2F/	.	.
.	.	4d\	.
2G\	2E/	2e\	.
=177	=177	=177	=177
0F	0A	0f	0cc_
=178	=178	=178	=178
0Cl	0Gl	0el	0cc]
==	==	==	==
*-	*-	*-	*-
!!!RDF**kern: l=long note in original notation
!!!RDF**kern: i=editorial accidental
!!!ENC:	Victoria Chang
!!!END:	2011/03/21/
!!!SMS:	Smijers 73
!!!SMS: Antonowycz, Myroslaw. Werken, Motetten, No. 73, afl. 45.
!!!EED:	Jesse Rodin
!!!EEV:	2011/04/04/
!!attribution-level@Jos: 4 (questionable)
!!!ONB:	Translated from MusicXML and edited on 2011/04/04/ by Craig Sapp
!!muse2ps: u^(2) @{OTL2}^C^@{COA}?\n@{SCT}^i2I150v90,90,90,150Q16
!!onb:	m166 data-entry chord removed [2011/03/25/]
!!onb:	m139 F# made ficta [2011/03/25/]
!!onb:	added section label to m88, repeated met. [2011/03/25/]
!!onb:	removed spurious content in Altus m70. [2011/03/25/]
!!onb:	created 2. from [2 4] in m19, m75, m82, m124, m126, m165, m166, m177. [2011/03/25/]
!!onb:	Two f# ficta in Altus m76. [2011/03/25/]
!!onb:  changed menCircle to men3 in m45, m127, m149 [2011/03/30/]
